icon-themes/breeze_svg/cmd/sc_notesmode.svg

<svg viewBox="0 0 16 16" xmlns="http://www.w3.org/2000/svg">/&gt;<path d="m3 2v12h4v-1h-3v-10h8v4h1v-5zm2 2v4h6v-4zm1 1h4v2h-4zm6 3-1 1-1 1-2 2v1 1h2l.59375-.59375.40625-.40625 1-1 1-1 1-1zm-7 1v1h3v-1zm6.6875.6875.59375.59375-.28125.28125-1.40625 1.40625v.03125l-1.28125 1.28125-.59375-.59375 1.875-1.90625zm-6.6875 1.3125v1h2v-1z" fill="#4d4d4d"/></svg>

<svg xmlns="http://www.w3.org/2000/svg" viewBox="0 0 16 16">
     />
 <path 
     style="fill:#4d4d4d" 
     d="M 3 2 L 3 14 L 7 14 L 7 13 L 4 13 L 4 3 L 12 3 L 12 7 L 13 7 L 13 2 L 3 2 z M 5 4 L 5 8 L 11 8 L 11 4 L 5 4 z M 6 5 L 10 5 L 10 7 L 6 7 L 6 5 z M 12 8 L 11 9 L 10 10 L 8 12 L 8 13 L 8 14 L 10 14 L 10.59375 13.40625 L 11 13 L 12 12 L 13 11 L 14 10 L 12 8 z M 5 9 L 5 10 L 8 10 L 8 9 L 5 9 z M 11.6875 9.6875 L 12.28125 10.28125 L 12 10.5625 L 10.59375 11.96875 L 10.59375 12 L 9.3125 13.28125 L 8.71875 12.6875 L 10.59375 10.78125 L 11.6875 9.6875 z M 5 11 L 5 12 L 7 12 L 7 11 L 5 11 z "
     />
 </svg>
